X:1
T:Otto Langey 050
T:Otto Langey 050
T:Otto Langey
T:Digital Conversion: Christophe Budiman
C:Otto Langey
L:1/8
Q:1/4=60
M:4/4
K:F
V:1 treble nm="Flute" snm="Fl."
V:1
 (3.B(FG (3ABc) (3(dBd (3cAc) | (3.B(FG (3ABc) (3.B(FG (3ABc) | (3.B(FG (3ABc) (3(dcd (3ede) | %3
 (3(fe).f (3(cd).e (3(fe).f (3(cd).e | (3(fa).g (3(fb).a (3(((((eg))))).f (3(ea).g | %5
 (3(df).e (3(dg).f (3(ed).c (3(BA).G | (3(AG).B (3(AG).F (3(Ed).c (3(BA).G | F4 z4 |] %8

